branches/nugui/src/gui/icons/position_flipy.svg

<?xml version="1.0" encoding="UTF-8" standalone="no"?>
<!-- Created with Inkscape (http://www.inkscape.org/) -->

<svg
   xmlns:dc="http://purl.org/dc/elements/1.1/"
   xmlns:cc="http://creativecommons.org/ns#"
   xmlns:rdf="http://www.w3.org/1999/02/22-rdf-syntax-ns#"
   xmlns:svg="http://www.w3.org/2000/svg"
   xmlns="http://www.w3.org/2000/svg"
   xmlns:xlink="http://www.w3.org/1999/xlink"
   xmlns:inkscape="http://www.inkscape.org/namespaces/inkscape"
   version="1.0"
   width="100"
   height="100"
   id="svg2">
  <metadata
     id="metadata2566">
    <rdf:RDF>
      <cc:Work
         rdf:about="">
        <dc:format>image/svg+xml</dc:format>
        <dc:type
           rdf:resource="http://purl.org/dc/dcmitype/StillImage" />
      </cc:Work>
    </rdf:RDF>
  </metadata>
  <defs
     id="defs4">
    <linearGradient
       id="linearGradient3389">
      <stop
         id="stop3391"
         style="stop-color:#ffffff;stop-opacity:1"
         offset="0" />
      <stop
         id="stop3393"
         style="stop-color:#d1c89d;stop-opacity:0"
         offset="1" />
    </linearGradient>
    <linearGradient
       id="linearGradient3383">
      <stop
         id="stop3385"
         style="stop-color:#ffff06;stop-opacity:0"
         offset="0" />
      <stop
         id="stop3387"
         style="stop-color:#000000;stop-opacity:1"
         offset="1" />
    </linearGradient>
    <linearGradient
       id="linearGradient3384">
      <stop
         id="stop3386"
         style="stop-color:#008302;stop-opacity:0"
         offset="0" />
      <stop
         id="stop3388"
         style="stop-color:#000000;stop-opacity:1"
         offset="1" />
    </linearGradient>
    <linearGradient
       id="linearGradient3252">
      <stop
         id="stop3254"
         style="stop-color:#ffffff;stop-opacity:1"
         offset="0" />
      <stop
         id="stop3256"
         style="stop-color:#007f05;stop-opacity:0"
         offset="1" />
    </linearGradient>
    <radialGradient
       cx="58.01162"
       cy="63.345894"
       r="33.113495"
       fx="58.01162"
       fy="63.345894"
       id="radialGradient2333"
       xlink:href="#linearGradient3389"
       gradientUnits="userSpaceOnUse"
       gradientTransform="matrix(0.1887019,0,0,0.1887019,59.380008,7.8885765)" />
    <linearGradient
       x1="25.398125"
       y1="63.345894"
       x2="90.625114"
       y2="63.345894"
       id="linearGradient2336"
       xlink:href="#linearGradient3383"
       gradientUnits="userSpaceOnUse"
       gradientTransform="matrix(0.2377304,0.2377304,-0.2377304,0.2377304,75.66753,-4.8518641)" />
    <radialGradient
       cx="58.01162"
       cy="63.345894"
       r="33.113495"
       fx="58.01162"
       fy="63.345894"
       id="radialGradient2449"
       xlink:href="#linearGradient3252"
       gradientUnits="userSpaceOnUse"
       gradientTransform="matrix(0.1887019,0,0,0.1887019,8.436958,8.020394)" />
    <linearGradient
       x1="25.398125"
       y1="63.345894"
       x2="90.625114"
       y2="63.345894"
       id="linearGradient2452"
       xlink:href="#linearGradient3384"
       gradientUnits="userSpaceOnUse"
       gradientTransform="matrix(0.2377304,0.2377304,-0.2377304,0.2377304,24.72448,-4.7200466)" />
  </defs>
  <g
     id="g2455">
    <path
       d="m 40.835531,36.183127 c 0.0011,6.056392 -4.90832,10.96663 -10.96471,10.96663 -6.05639,0 -10.96577,-4.910238 -10.96471,-10.96663 -0.0011,-6.056392 4.90832,-10.96663 10.96471,-10.96663 6.05639,0 10.96577,4.910238 10.96471,10.96663 l 0,0 z"
       inkscape:connector-curvature="0"
       id="path4484"
       style="fill:#dde1e3;fill-opacity:1;fill-rule:evenodd;stroke:none" />
    <path
       d="m 34.307376,24.171075 c 0.0011,6.056391 -4.908318,10.966629 -10.96471,10.966629 -6.056392,0 -10.96577,-4.910238 -10.96471,-10.966629 -0.0011,-6.056392 4.908318,-10.96663 10.96471,-10.96663 6.056392,0 10.96577,4.910238 10.96471,10.96663 l 0,0 z"
       inkscape:connector-curvature="0"
       id="path3474"
       style="fill:#00ab00;fill-opacity:1;fill-rule:evenodd;stroke:#000000;stroke-width:0.33620161px;stroke-linecap:butt;stroke-linejoin:miter;stroke-opacity:1" />
    <path
       d="m 31.209581,31.883548 c -4.281766,4.283265 -11.225283,4.283873 -15.507798,0.0014 -4.282517,-4.282516 -4.281908,-11.226032 0.0014,-15.507798 4.281766,-4.283265 11.225283,-4.283873 15.507799,-0.0014 4.282515,4.282516 4.281907,11.226034 -0.0014,15.507799 l 0,0 z"
       inkscape:connector-curvature="0"
       id="path3476"
       style="opacity:0.71739131;fill:url(#linearGradient2452);fill-opacity:1;fill-rule:evenodd;stroke:none" />
    <path
       d="m 25.538086,19.973883 c 5.95e-4,3.399306 -2.75492,6.155305 -6.154227,6.155305 -3.399307,0 -6.154822,-2.755999 -6.154227,-6.155305 -5.95e-4,-3.399308 2.75492,-6.155306 6.154227,-6.155306 3.399307,0 6.154822,2.755998 6.154227,6.155306 l 0,0 z"
       inkscape:connector-curvature="0"
       id="path3478"
       style="fill:url(#radialGradient2449);fill-opacity:1;fill-rule:evenodd;stroke:none" />
  </g>
  <use
     transform="translate(50.957601,0.1592425)"
     id="use2461"
     x="0"
     y="0"
     width="100"
     height="100"
     xlink:href="#g2455" />
  <path
     d="m 12.636381,58.695097 85.5554,0"
     inkscape:connector-curvature="0"
     id="path4498"
     style="opacity:0.64130435;fill:none;stroke:#e4e3e3;stroke-width:3;stroke-linecap:round;stroke-linejoin:round;stroke-miterlimit:4;stroke-opacity:1;stroke-dasharray:6, 3;stroke-dashoffset:0" />
  <g
     id="g2464">
    <path
       d="m 40.835531,81.850208 c 0.0011,6.056392 -4.90831,10.96663 -10.96471,10.96663 -6.05639,0 -10.96577,-4.910238 -10.96471,-10.96663 -0.0011,-6.056392 4.90832,-10.96663 10.96471,-10.96663 6.0564,0 10.96577,4.910238 10.96471,10.96663 l 0,0 z"
       inkscape:connector-curvature="0"
       id="path4502"
       style="fill:#e0e0e3;fill-opacity:1;fill-rule:evenodd;stroke:none" />
    <g
       transform="translate(-50.94305,45.798899)"
       id="g2225">
      <path
         d="m 85.250426,24.039257 c 0.0011,6.056392 -4.908318,10.96663 -10.96471,10.96663 -6.056392,0 -10.96577,-4.910238 -10.96471,-10.96663 -0.0011,-6.056392 4.908318,-10.96663 10.96471,-10.96663 6.056392,0 10.96577,4.910238 10.96471,10.96663 l 0,0 z"
         inkscape:connector-curvature="0"
         id="path2258"
         style="fill:#c7cfcc;fill-opacity:0.78089887;fill-rule:evenodd;stroke:#000000;stroke-width:0.33620161px;stroke-linecap:butt;stroke-linejoin:miter;stroke-opacity:1" />
      <path
         d="m 82.152631,31.751731 c -4.281766,4.283265 -11.225283,4.283873 -15.507798,0.0014 -4.282517,-4.282516 -4.281908,-11.226033 0.0014,-15.507798 4.281766,-4.283266 11.225283,-4.283874 15.507799,-0.0014 4.282515,4.282516 4.281907,11.226033 -0.0014,15.507799 l 0,0 z"
         inkscape:connector-curvature="0"
         id="path2260"
         style="opacity:0.71739131;fill:url(#linearGradient2336);fill-opacity:1;fill-rule:evenodd;stroke:none" />
      <path
         d="m 76.481136,19.842065 c 5.95e-4,3.399306 -2.75492,6.155305 -6.154227,6.155305 -3.399307,0 -6.154822,-2.755999 -6.154227,-6.155305 -5.95e-4,-3.399307 2.75492,-6.155305 6.154227,-6.155305 3.399307,0 6.154822,2.755998 6.154227,6.155305 l 0,0 z"
         inkscape:connector-curvature="0"
         id="path2262"
         style="fill:url(#radialGradient2333);fill-opacity:1;fill-rule:evenodd;stroke:none" />
    </g>
  </g>
  <use
     transform="translate(50.957601,0)"
     id="use2471"
     x="0"
     y="0"
     width="100"
     height="100"
     xlink:href="#g2464" />
  <path
     d="m 6.1082224,46.683045 85.5554056,0"
     inkscape:connector-curvature="0"
     id="path3261"
     style="opacity:0.64130435;fill:none;stroke:#000000;stroke-width:3;stroke-linecap:round;stroke-linejoin:round;stroke-miterlimit:4;stroke-opacity:1;stroke-dasharray:6, 3;stroke-dashoffset:0" />
</svg>

<?xml version="1.0" encoding="UTF-8" standalone="no"?>
<!-- Created with Inkscape (http://www.inkscape.org/) -->
<svg
   xmlns:dc="http://purl.org/dc/elements/1.1/"
   xmlns:cc="http://web.resource.org/cc/"
   xmlns:rdf="http://www.w3.org/1999/02/22-rdf-syntax-ns#"
   xmlns:svg="http://www.w3.org/2000/svg"
   xmlns="http://www.w3.org/2000/svg"
   xmlns:xlink="http://www.w3.org/1999/xlink"
   xmlns:sodipodi="http://sodipodi.sourceforge.net/DTD/sodipodi-0.dtd"
   xmlns:inkscape="http://www.inkscape.org/namespaces/inkscape"
   version="1.0"
   width="100"
   height="100"
   id="svg2"
   sodipodi:version="0.32"
   inkscape:version="0.45.1"
   sodipodi:docname="transform_flipy.svg"
   sodipodi:docbase="/home/tris/src/aten/src/gui-qt/icons"
   inkscape:output_extension="org.inkscape.output.svg.inkscape">
  <metadata
     id="metadata2566">
    <rdf:RDF>
      <cc:Work
         rdf:about="">
        <dc:format>image/svg+xml</dc:format>
        <dc:type
           rdf:resource="http://purl.org/dc/dcmitype/StillImage" />
      </cc:Work>
    </rdf:RDF>
  </metadata>
  <sodipodi:namedview
     inkscape:window-height="714"
     inkscape:window-width="1024"
     inkscape:pageshadow="2"
     inkscape:pageopacity="0.0"
     guidetolerance="10.0"
     gridtolerance="10.0"
     objecttolerance="10.0"
     borderopacity="1.0"
     bordercolor="#666666"
     pagecolor="#ffffff"
     id="base"
     inkscape:zoom="6.2797305"
     inkscape:cx="52.150002"
     inkscape:cy="47.073409"
     inkscape:window-x="5"
     inkscape:window-y="52"
     inkscape:current-layer="svg2" />
  <defs
     id="defs4">
    <linearGradient
       id="linearGradient3389">
      <stop
         id="stop3391"
         offset="0"
         style="stop-color:#ffffff;stop-opacity:1;" />
      <stop
         id="stop3393"
         offset="1"
         style="stop-color:#d1c89d;stop-opacity:0;" />
    </linearGradient>
    <linearGradient
       id="linearGradient3383">
      <stop
         id="stop3385"
         offset="0"
         style="stop-color:#ffff06;stop-opacity:0;" />
      <stop
         id="stop3387"
         offset="1"
         style="stop-color:#000000;stop-opacity:1" />
    </linearGradient>
    <linearGradient
       id="linearGradient3384">
      <stop
         style="stop-color:#008302;stop-opacity:0;"
         offset="0"
         id="stop3386" />
      <stop
         style="stop-color:#000000;stop-opacity:1"
         offset="1"
         id="stop3388" />
    </linearGradient>
    <linearGradient
       id="linearGradient3252">
      <stop
         style="stop-color:#ffffff;stop-opacity:1"
         offset="0"
         id="stop3254" />
      <stop
         style="stop-color:#007f05;stop-opacity:0;"
         offset="1"
         id="stop3256" />
    </linearGradient>
    <radialGradient
       inkscape:collect="always"
       xlink:href="#linearGradient3389"
       id="radialGradient2333"
       gradientUnits="userSpaceOnUse"
       gradientTransform="matrix(0.1887019,0,0,0.1887019,59.380008,7.8885765)"
       cx="58.01162"
       cy="63.345894"
       fx="58.01162"
       fy="63.345894"
       r="33.113495" />
    <linearGradient
       inkscape:collect="always"
       xlink:href="#linearGradient3383"
       id="linearGradient2336"
       gradientUnits="userSpaceOnUse"
       gradientTransform="matrix(0.2377304,0.2377304,-0.2377304,0.2377304,75.66753,-4.8518641)"
       x1="25.398125"
       y1="63.345894"
       x2="90.625114"
       y2="63.345894" />
    <radialGradient
       inkscape:collect="always"
       xlink:href="#linearGradient3389"
       id="radialGradient2344"
       gradientUnits="userSpaceOnUse"
       gradientTransform="matrix(0.1887019,0,0,0.1887019,59.380009,53.176154)"
       cx="58.01162"
       cy="63.345894"
       fx="58.01162"
       fy="63.345894"
       r="33.113495" />
    <linearGradient
       inkscape:collect="always"
       xlink:href="#linearGradient3383"
       id="linearGradient2347"
       gradientUnits="userSpaceOnUse"
       gradientTransform="matrix(0.2377304,0.2377304,-0.2377304,0.2377304,75.66753,40.435713)"
       x1="25.398125"
       y1="63.345894"
       x2="90.625114"
       y2="63.345894" />
    <radialGradient
       inkscape:collect="always"
       xlink:href="#linearGradient3252"
       id="radialGradient2363"
       gradientUnits="userSpaceOnUse"
       gradientTransform="matrix(0.1887019,0,0,0.1887019,8.580433,53.176154)"
       cx="58.01162"
       cy="63.345894"
       fx="58.01162"
       fy="63.345894"
       r="33.113495" />
    <linearGradient
       inkscape:collect="always"
       xlink:href="#linearGradient3384"
       id="linearGradient2366"
       gradientUnits="userSpaceOnUse"
       gradientTransform="matrix(0.2377304,0.2377304,-0.2377304,0.2377304,24.867954,40.435713)"
       x1="25.398125"
       y1="63.345894"
       x2="90.625114"
       y2="63.345894" />
    <radialGradient
       inkscape:collect="always"
       xlink:href="#linearGradient3252"
       id="radialGradient2374"
       gradientUnits="userSpaceOnUse"
       gradientTransform="matrix(0.1887019,0,0,0.1887019,8.580432,7.8885765)"
       cx="58.01162"
       cy="63.345894"
       fx="58.01162"
       fy="63.345894"
       r="33.113495" />
    <linearGradient
       inkscape:collect="always"
       xlink:href="#linearGradient3384"
       id="linearGradient2377"
       gradientUnits="userSpaceOnUse"
       gradientTransform="matrix(0.2377304,0.2377304,-0.2377304,0.2377304,24.867954,-4.8518641)"
       x1="25.398125"
       y1="63.345894"
       x2="90.625114"
       y2="63.345894" />
    <radialGradient
       inkscape:collect="always"
       xlink:href="#linearGradient3252"
       id="radialGradient2449"
       gradientUnits="userSpaceOnUse"
       gradientTransform="matrix(0.1887019,0,0,0.1887019,8.436958,8.020394)"
       cx="58.01162"
       cy="63.345894"
       fx="58.01162"
       fy="63.345894"
       r="33.113495" />
    <linearGradient
       inkscape:collect="always"
       xlink:href="#linearGradient3384"
       id="linearGradient2452"
       gradientUnits="userSpaceOnUse"
       gradientTransform="matrix(0.2377304,0.2377304,-0.2377304,0.2377304,24.72448,-4.7200466)"
       x1="25.398125"
       y1="63.345894"
       x2="90.625114"
       y2="63.345894" />
  </defs>
  <g
     id="g2455">
    <path
       d="M 40.835531,36.183127 C 40.836591,42.239519 35.927211,47.149757 29.870821,47.149757 C 23.814431,47.149757 18.905051,42.239519 18.906111,36.183127 C 18.905051,30.126735 23.814431,25.216497 29.870821,25.216497 C 35.927211,25.216497 40.836591,30.126735 40.835531,36.183127 L 40.835531,36.183127 z "
       style="fill:#dde1e3;fill-opacity:1;fill-rule:evenodd;stroke:none;stroke-width:0.33620161px;stroke-linecap:butt;stroke-linejoin:miter;stroke-opacity:1"
       id="path4484" />
    <path
       d="M 34.307376,24.171075 C 34.308436,30.227466 29.399058,35.137704 23.342666,35.137704 C 17.286274,35.137704 12.376896,30.227466 12.377956,24.171075 C 12.376896,18.114683 17.286274,13.204445 23.342666,13.204445 C 29.399058,13.204445 34.308436,18.114683 34.307376,24.171075 L 34.307376,24.171075 z "
       style="fill:#00ab00;fill-opacity:1;fill-rule:evenodd;stroke:#000000;stroke-width:0.33620161px;stroke-linecap:butt;stroke-linejoin:miter;stroke-opacity:1"
       id="path3474" />
    <path
       d="M 31.209581,31.883548 C 26.927815,36.166813 19.984298,36.167421 15.701783,31.884906 C 11.419266,27.60239 11.419875,20.658874 15.70314,16.377108 C 19.984906,12.093843 26.928423,12.093235 31.210939,16.375749 C 35.493454,20.658265 35.492846,27.601783 31.209581,31.883548 L 31.209581,31.883548 z "
       style="opacity:0.71739131;fill:url(#linearGradient2452);fill-opacity:1;fill-rule:evenodd;stroke:none;stroke-width:1px;stroke-linecap:butt;stroke-linejoin:miter;stroke-opacity:1"
       id="path3476" />
    <path
       d="M 25.538086,19.973883 C 25.538681,23.373189 22.783166,26.129188 19.383859,26.129188 C 15.984552,26.129188 13.229037,23.373189 13.229632,19.973883 C 13.229037,16.574575 15.984552,13.818577 19.383859,13.818577 C 22.783166,13.818577 25.538681,16.574575 25.538086,19.973883 L 25.538086,19.973883 z "
       style="fill:url(#radialGradient2449);fill-opacity:1;fill-rule:evenodd;stroke:none;stroke-width:1px;stroke-linecap:butt;stroke-linejoin:miter;stroke-opacity:1"
       id="path3478" />
  </g>
  <use
     x="0"
     y="0"
     xlink:href="#g2455"
     id="use2461"
     transform="translate(50.957601,0.1592425)"
     width="100"
     height="100" />
  <path
     style="opacity:0.64130435;fill:none;fill-opacity:1;fill-rule:evenodd;stroke:#e4e3e3;stroke-width:3;stroke-linecap:round;stroke-linejoin:round;stroke-miterlimit:4;stroke-dasharray:6, 3;stroke-dashoffset:0;stroke-opacity:1"
     d="M 12.636381,58.695097 L 98.191781,58.695097"
     id="path4498"
     sodipodi:nodetypes="cc" />
  <g
     id="g2464">
    <path
       d="M 40.835531,81.850208 C 40.836591,87.9066 35.927221,92.816838 29.870821,92.816838 C 23.814431,92.816838 18.905051,87.9066 18.906111,81.850208 C 18.905051,75.793816 23.814431,70.883578 29.870821,70.883578 C 35.927221,70.883578 40.836591,75.793816 40.835531,81.850208 L 40.835531,81.850208 z "
       style="fill:#e0e0e3;fill-opacity:1;fill-rule:evenodd;stroke:none;stroke-width:0.33620161px;stroke-linecap:butt;stroke-linejoin:miter;stroke-opacity:1"
       id="path4502" />
    <g
       transform="translate(-50.94305,45.798899)"
       id="g2225">
      <path
         id="path2258"
         style="fill:#c7cfcc;fill-opacity:0.78089887;fill-rule:evenodd;stroke:#000000;stroke-width:0.33620161px;stroke-linecap:butt;stroke-linejoin:miter;stroke-opacity:1"
         d="M 85.250426,24.039257 C 85.251486,30.095649 80.342108,35.005887 74.285716,35.005887 C 68.229324,35.005887 63.319946,30.095649 63.321006,24.039257 C 63.319946,17.982865 68.229324,13.072627 74.285716,13.072627 C 80.342108,13.072627 85.251486,17.982865 85.250426,24.039257 L 85.250426,24.039257 z " />
      <path
         id="path2260"
         style="opacity:0.71739131;fill:url(#linearGradient2336);fill-opacity:1;fill-rule:evenodd;stroke:none;stroke-width:1px;stroke-linecap:butt;stroke-linejoin:miter;stroke-opacity:1"
         d="M 82.152631,31.751731 C 77.870865,36.034996 70.927348,36.035604 66.644833,31.753089 C 62.362316,27.470573 62.362925,20.527056 66.64619,16.245291 C 70.927956,11.962025 77.871473,11.961417 82.153989,16.243932 C 86.436504,20.526448 86.435896,27.469965 82.152631,31.751731 L 82.152631,31.751731 z " />
      <path
         id="path2262"
         style="fill:url(#radialGradient2333);fill-opacity:1;fill-rule:evenodd;stroke:none;stroke-width:1px;stroke-linecap:butt;stroke-linejoin:miter;stroke-opacity:1"
         d="M 76.481136,19.842065 C 76.481731,23.241371 73.726216,25.99737 70.326909,25.99737 C 66.927602,25.99737 64.172087,23.241371 64.172682,19.842065 C 64.172087,16.442758 66.927602,13.68676 70.326909,13.68676 C 73.726216,13.68676 76.481731,16.442758 76.481136,19.842065 L 76.481136,19.842065 z " />
    </g>
  </g>
  <use
     x="0"
     y="0"
     xlink:href="#g2464"
     id="use2471"
     transform="translate(50.957601,0)"
     width="100"
     height="100" />
  <path
     style="opacity:0.64130435;fill:none;fill-opacity:1;fill-rule:evenodd;stroke:#000000;stroke-width:3;stroke-linecap:round;stroke-linejoin:round;stroke-miterlimit:4;stroke-dasharray:6, 3;stroke-dashoffset:0;stroke-opacity:1"
     d="M 6.1082224,46.683045 L 91.663628,46.683045"
     id="path3261"
     sodipodi:nodetypes="cc" />
</svg>
